svgs/viber.svg

<?xml version="1.0" encoding="UTF-8" standalone="no"?><svg xmlns:android="http://schemas.android.com/apk/res/android" height="24" width="24" xmlns="http://www.w3.org/2000/svg">
  <path d="m12.7433,13.4551c0,0 0.3556,0.03 0.5471,-0.2059L13.6638,12.7796c0.1801,-0.2329 0.6147,-0.3815 1.0402,-0.1444a11.0047,11.0047 0,0 1,0.9277 0.5924c0.2824,0.2077 0.8608,0.6903 0.8626,0.6903 0.2755,0.2326 0.3391,0.5741 0.1516,0.9343 0,0.0021 -0.0015,0.0057 -0.0015,0.0075a3.8959,3.8959 0,0 1,-0.777 0.9568c-0.0036,0.0018 -0.0036,0.0036 -0.0069,0.0054q-0.4016,0.3355 -0.789,0.3815a0.5219,0.5219 0,0 1,-0.1152 0.0072,1.0504 1.0504,0 0,1 -0.3355,-0.0516l-0.0084,-0.0123C14.2142,16.0344 13.5498,15.7535 12.4432,15.143A12.9171,12.9171 0,0 1,10.6208 13.9392,9.5533 9.5533,0 0,1 9.8012,13.2123l-0.0276,-0.0276 -0.0276,-0.0276v0L9.7184,13.1295c-0.0093,-0.009 -0.0183,-0.0183 -0.0276,-0.0276A9.5533,9.5533 0,0 1,8.9638 12.2822,12.9303 12.9303,0 0,1 7.76,10.4602C7.1496,9.3533 6.8687,8.6894 6.7564,8.2909l-0.0123,-0.0084A1.0504,1.0504 0,0 1,6.6928 7.9469,0.5063 0.5063,0 0,1 6.6997,7.8317Q6.748,7.4448 7.0817,7.0421c0.0018,-0.0033 0.0036,-0.0033 0.0054,-0.0069A3.8875,3.8875 0,0 1,8.044 6.2584c0.0018,0 0.0054,-0.0018 0.0075,-0.0018 0.3602,-0.1876 0.7017,-0.124 0.934,0.1501 0.0018,0.0018 0.4835,0.5801 0.6903,0.8626a11.0047,11.0047 0,0 1,0.5924 0.9286C10.5053,8.6231 10.3567,9.0586 10.1238,9.2381L9.6541,9.6114c-0.2371,0.1915 -0.2059,0.5471 -0.2059,0.5471 0,0 0.6957,2.633 3.2951,3.2966zM11.8652,5.5801a0.253,0.253 0,0 0,-0.2559 0.252,0.253 0.253,0 0,0 0.252,0.2539c1.3527,0.0094 2.4536,0.447 3.3555,1.3262 0.8943,0.8718 1.3515,2.0566 1.3633,3.6113a0.253,0.253 0,0 0,0.2539 0.252,0.253 0.253,0 0,0 0.252,-0.2559C17.0734,9.3661 16.5688,8.0241 15.5703,7.0508 14.5793,6.0847 13.3277,5.5903 11.8652,5.5801ZM12.3281,6.8926a0.253,0.253 0,0 0,-0.2715 0.2344,0.253 0.253,0 0,0 0.2344,0.2715c0.9658,0.0707 1.6821,0.3862 2.2051,0.957 0.5244,0.573 0.7728,1.2692 0.7539,2.1406a0.253,0.253 0,0 0,0.248 0.2578,0.253 0.253,0 0,0 0.2578,-0.2461C15.777,9.5305 15.48,8.6812 14.8691,8.0137 14.2516,7.3396 13.3881,6.9702 12.3281,6.8926ZM12.707,8.25a0.253,0.253 0,0 0,-0.2656 0.2402,0.253 0.253,0 0,0 0.2383,0.2656c0.4361,0.0227 0.7306,0.1457 0.9297,0.3516 0.1991,0.2058 0.3211,0.5151 0.3438,0.9707a0.253,0.253 0,0 0,0.2637 0.2402,0.253 0.253,0 0,0 0.2402,-0.2637C14.4304,9.5181 14.2776,9.0711 13.9727,8.7559 13.6677,8.4406 13.2298,8.2773 12.707,8.25ZM19.3428,3.9508C18.8458,3.4922 16.8373,2.0342 12.3637,2.0144c0,0 -5.2756,-0.3181 -7.8474,2.0409 -1.4316,1.4319 -1.9352,3.5271 -1.9883,6.1247 -0.0531,2.5976 -0.1219,7.4656 4.5706,8.7856h0.0045l-0.003,2.0141c0,0 -0.03,0.8154 0.5069,0.9817 0.6495,0.2017 1.0306,-0.4181 1.6507,-1.0862 0.3403,-0.3668 0.8103,-0.9055 1.1645,-1.3173 3.2092,0.2701 5.6775,-0.3472 5.9578,-0.4385 0.648,-0.2101 4.3146,-0.6801 4.911,-5.5475C21.9064,8.5547 20.9932,5.3812 19.3428,3.9508ZM19.8866,13.212c-0.5033,4.0643 -3.4773,4.3197 -4.0256,4.4956 -0.2332,0.075 -2.401,0.6144 -5.127,0.4364 0,0 -2.0312,2.4505 -2.6657,3.0877 -0.099,0.0996 -0.2155,0.1399 -0.2932,0.12 -0.1092,-0.0267 -0.1393,-0.1561 -0.1381,-0.3451 0.0018,-0.2701 0.0174,-3.347 0.0174,-3.347 0,0 -0.0024,0 0,0C3.6849,16.5575 3.9163,12.4143 3.9613,10.2447 4.0064,8.0751 4.4139,6.2977 5.6246,5.1023 7.8,3.132 12.2811,3.4264 12.2811,3.4264c3.7843,0.0165 5.5976,1.1561 6.0181,1.5378 1.3962,1.1954 2.1075,4.0559 1.5874,8.2465z" fill="#000000" stroke-width="0.0300125"/>
</svg>

<svg width="24" height="24" viewBox="0 0 24 24" fill="none" xmlns="http://www.w3.org/2000/svg"><path style="fill:#000;stroke-width:.0300125" class="cls-1" d="M12.743 13.455s.356.03.547-.206l.374-.47c.18-.232.614-.38 1.04-.144a11.005 11.005 0 0 1 .928.593c.282.207.86.69.862.69.276.233.34.574.152.934l-.002.008a3.896 3.896 0 0 1-.777.957l-.007.005q-.401.335-.789.381a.522.522 0 0 1-.115.008 1.05 1.05 0 0 1-.335-.052l-.009-.012c-.398-.113-1.062-.394-2.169-1.004a12.917 12.917 0 0 1-1.822-1.204 9.553 9.553 0 0 1-.82-.727l-.027-.027-.028-.028-.028-.027-.027-.028a9.553 9.553 0 0 1-.727-.82A12.93 12.93 0 0 1 7.76 10.46c-.61-1.107-.891-1.77-1.004-2.17l-.012-.008a1.05 1.05 0 0 1-.051-.335.506.506 0 0 1 .007-.115q.048-.387.382-.79l.005-.007a3.888 3.888 0 0 1 .957-.777l.007-.001c.36-.188.702-.124.934.15.002.001.484.58.69.862a11.005 11.005 0 0 1 .593.929c.237.425.089.86-.144 1.04l-.47.373c-.237.192-.206.548-.206.548s.696 2.633 3.295 3.296zm-.878-7.875a.253.253 0 0 0-.256.252.253.253 0 0 0 .252.254c1.353.01 2.454.447 3.356 1.326.894.872 1.351 2.057 1.363 3.611a.253.253 0 0 0 .254.252.253.253 0 0 0 .252-.255c-.013-1.654-.517-2.996-1.516-3.97-.99-.965-2.242-1.46-3.705-1.47Zm.463 1.313a.253.253 0 0 0-.271.234.253.253 0 0 0 .234.271c.966.071 1.682.387 2.205.957.524.573.773 1.27.754 2.141a.253.253 0 0 0 .248.258.253.253 0 0 0 .258-.246c.021-.978-.276-1.827-.887-2.494-.617-.674-1.48-1.044-2.54-1.121Zm.379 1.357a.253.253 0 0 0-.266.24.253.253 0 0 0 .239.266c.436.023.73.146.93.351.198.206.32.516.343.971a.253.253 0 0 0 .264.24.253.253 0 0 0 .24-.263c-.027-.537-.18-.984-.484-1.3-.305-.314-.743-.478-1.266-.505Zm6.636-4.3c-.497-.458-2.506-1.916-6.98-1.936 0 0-5.275-.318-7.847 2.041-1.431 1.432-1.935 3.527-1.988 6.125-.053 2.597-.122 7.465 4.57 8.785h.005L7.1 20.98s-.03.815.507.981c.65.202 1.03-.418 1.65-1.086.341-.367.811-.905 1.165-1.317 3.21.27 5.678-.347 5.958-.439.648-.21 4.315-.68 4.91-5.547.616-5.017-.297-8.19-1.947-9.621Zm.544 9.262c-.504 4.064-3.478 4.32-4.026 4.496-.233.075-2.401.614-5.127.436 0 0-2.031 2.45-2.666 3.088-.099.1-.215.14-.293.12-.11-.027-.14-.156-.138-.345l.017-3.347s-.002 0 0 0c-3.97-1.102-3.738-5.246-3.693-7.415.045-2.17.453-3.947 1.664-5.143C7.8 3.132 12.28 3.426 12.28 3.426c3.784.017 5.598 1.157 6.018 1.538 1.396 1.196 2.108 4.056 1.588 8.247z"/></svg>
